!!!!SEGMENT: pl-sa--70-a-ii-10--010_pergolesi-giovanni-battista--stabat-mater-fac-ut-portem.krn
!!!cenid: 17xx:652
!!!COM: Pergolesi, Giovanni Battista
!!!COM-rismid: pe30002483
!!!CDT: 1710/01/04-1736/03
!!!CNT: Italian
!!!OPR: Stabat Mater
!!!OTL: Fac ut portem
!!!OMV: 010
!!!PDT:
!!!AGN: Sacred
!!!SMS-siglum: PL-SA
!!!SMS-shelfmark: 70/A II 10
!!!SMS-shelfwork: 001-010 M
!!!SMS-variant:
!!!SMS-altvar:
!!!NIFC-rismid: 1001030091
!!!URL-scan: http://bc.bdsandomierz.pl/dlibra/publication/1341/edition/1309/content
!!!ONB-nifc: UWAGA: części Stabat Mater: Stabat Mater, Cuius animam, O quam tristis, Quae moerebat, Quist est homo+Pro peccatis, Vidit suum, Eja mater, Fac ut ardeat, Sancta Mater, Fac ut portem, Inflammatus, Quando corpus+Amen
!!!AIN: 1 alto 1 organ 1 viola 2 violn 1 vox
!!!key:
**kern	**fba	**dynam	**kern	**kern	**kern	**dynam	**kern	**text	**kern
*part6	*	*part6	*part5	*part4	*part3	*part3	*part2	*part2	*part1
*	*	*	*group2	*group2	*group2	*	*group1	*	*group1
*staff6	*	*	*staff5	*staff4	*staff3	*	*staff2	*staff2	*staff1
*Iorgan	*	*	*Iviola	*Ivioln	*Ivioln	*	*Ialto	*	*Ivox
*I"ORGANO	*	*	*I"Alto Viola	*I"Violino 2do	*I"Violino 1mo	*	*I"Alto	*	*I"Canto
*I'org.	*	*	*I'a-vla	*I'vl 2	*I'vl 1	*	*I'A	*	*I'S
*clefF4	*	*	*clefC3	*clefG2	*clefG2	*	*clefC3	*	*clefC1
*k[e-b-]	*	*	*k[e-b-]	*k[e-b-]	*k[e-b-]	*	*k[e-b-]	*	*k[b-e-]
*g:	*	*	*g:	*g:	*g:	*	*g:	*	*g:
*M4/4	*	*	*M4/4	*M4/4	*M4/4	*	*M4/4	*	*M4/4
*met(c)	*	*	*met(c)	*met(c)	*met(c)	*	*met(c)	*	*met(c)
=1	=1	=1	=1	=1	=1	=1	=1	=1	=1
!LO:TX:a:t=P:problem=bemole F- BB-	!	!	!LO:TX:a:t=P:problem=bemole f- B-	!LO:TX:a:t=P:problem=mixed beam	!LO:TX:a:t=P:problem=mixed beam	!	!	!	!
!	!	!	!LO:TX:a:t=Facut potem	!LO:TX:b:i:t=Fac ut potem	!LO:TX:b:i:t=Fac ut potem	!	!LO:TX:a:t=6	!	!LO:TX:a:i:t=Fac ut \nTacet
8G\L	.	.	8g\L	8gg\L	8gg\L	.	00r	.	1ryy
16.G\L	.	.	16.g\L	16.g/L	16.g/L	.	.	.	.
32G\JJk	.	.	32g\JJk	32g/JJk	32g/JJk	.	.	.	.
16.G\LL	.	.	16.g\LL	16.g/LL	16.g/LL	.	.	.	.
32B-\K	.	.	32b-\K	32b-/K	32b-/K	.	.	.	.
16.A\	.	.	16.a\	16.a/	16.a/	.	.	.	.
32G\JJk	.	.	32g\JJk	32g/JJk	32g/JJk	.	.	.	.
8F#X\L	6	.	8f#X\L	16f#X/LL	16f#X/LL	.	.	.	.
.	.	.	.	16cc#X/J	16cc#X/J	.	.	.	.
8d\J	.	.	8dd\J	8dd/J	8dd/J	.	.	.	.
4r;	.	.	4r;	4r;	4r;	.	.	.	.
!	!	!	!	!	!LO:LB:g=original	!	!	!	!
=2	=2	=2	=2	=2	=2	=2	=2	=2	=2
*	*	*	*	*	*	*below	*	*	*
!	!	!	!	!LO:TX:a:t=P:problem=mixed beam	!LO:TX:a:t=P:problem=mixed beam	!LO:DY:t=p&colon;	!	!	!
8Fn\L	6	.	8fn\L	8ffn\L	8ffn\L	p	.	.	1ryy
16.F\L	.	.	16.f\L	16.f/L	16.f/L	.	.	.	.
32F\JJk	.	.	32f\JJk	32f/JJk	32f/JJk	.	.	.	.
16.F\LL	.	.	16.f\LL	16.f/LL	16.f/LL	.	.	.	.
!	!	!	!LO:SIC:s=32a-	!	!	!	!	!	!
32A-X\K	.	.	32a\K	32a-X/K	32a-X/K	.	.	.	.
16.G\	.	.	16.g\	16.g/	16.g/	.	.	.	.
32F\JJk	.	.	32f\JJk	32f/JJk	32f/JJk	.	.	.	.
8En\L	6	.	8en\L	16en/LL	16en/LL	.	.	.	.
.	.	.	.	16bn/J	16bn/J	.	.	.	.
8c\J	.	.	8cc\J	8cc/J	8ccn/J	.	.	.	.
4r;	.	.	4r;	4r;	4r;	.	.	.	.
=3	=3	=3	=3	=3	=3	=3	=3	=3	=3
!	!	!	!LO:SIC:s=8e-	!LO:TX:a:t=P:problem=mixed beam	!LO:TX:a:t=P:problem=mixed beam	!	!	!	!
!	!	!	!LO:N:vis=4	!	!	!	!	!	!
8E-X\L	6	.	8e#X\	8ee-X\L	8ee-X\L	f	.	.	1ryy
!	!	!	!LO:SIC:s=16.e-	!	!	!	!	!	!
!	!	!	!LO:N:vis=8.	!	!	!	!	!	!
16.E-\L	.	.	16.e#\LL	16.e-/L	16.e-/L	.	.	.	.
!	!	!	!LO:SIC:s=32e-	!	!	!	!	!	!
!	!	!	!LO:N:vis=16	!	!	!	!	!	!
32E-\JJk	.	.	32e#\JJk	32e-/JJk	32e-/JJk	.	.	.	.
16.E-\LL	.	.	16.e#\LL	16.e-/LL	16.e-/LL	.	.	.	.
32G\K	.	.	32g\K	32g/K	32g/K	.	.	.	.
16.F\	.	.	16.f\	16.f/	16.f/	.	.	.	.
!	!	!	!LO:SIC:s=32e-	!	!	!	!	!	!
32E-\JJk	.	.	32e#\JJk	32e-/JJk	32e-/JJk	.	.	.	.
8D\L	6\	.	8d\L	16d/LL	16d/LL	.	.	.	.
.	.	.	.	16an/J	16an/J	.	.	.	.
8B-\J	.	.	8b-\J	8b-/J	8b-/J	.	.	.	.
4r;	.	.	4r	8r	8r	.	.	.	.
.	.	.	.	8d/	16bb-\LL	.	.	.	.
!LO:TX:a:t=P:problem=po tym takcie wykreślone 4 ósemki	!	!	!	!	!	!	!	!	!
.	.	.	.	.	16ff#X\JJ	.	.	.	.
=4	=4	=4	=4	=4	=4	=4	=4	=4	=4
!	!	!	!	!LO:TX:a:t=P:problem=mixed beam	!	!	!	!	!
2r	.	.	2r	8e-/L	8gg\L	.	.	.	1ryy
.	.	.	.	16ee-\L	16ff#X\L	.	.	.	.
.	.	.	.	16an\JJ	16gg\JJ	.	.	.	.
!	!	!	!	!LO:TX:a:t=P:problem=mixed beam	!	!	!	!	!
.	.	.	.	8b-\L	32gg\LLL	.	.	.	.
.	.	.	.	.	32gg\	.	.	.	.
.	.	.	.	.	32aa\	.	.	.	.
.	.	.	.	.	32bb-\JJJ	.	.	.	.
.	.	.	.	8c/J	32aa\LLL	.	.	.	.
.	.	.	.	.	32gg\	.	.	.	.
.	.	.	.	.	32ff#X\	.	.	.	.
.	.	.	.	.	32gg\JJJ	.	.	.	.
4r	.	.	4r	4d/	16ff#X\LL	.	.	.	.
!	!	!	!	!	!LO:SIC:s=16een	!	!	!	!
.	.	.	.	.	16ee-\J	.	.	.	.
.	.	.	.	.	8dd\J	.	.	.	.
16D/LL	#	.	16d/LL	4r	4r;	.	.	.	.
16C/	.	.	16c/	.	.	.	.	.	.
16BB-/	.	.	16B-/	.	.	.	.	.	.
16AA/JJ	.	.	16A/JJ	.	.	.	.	.	.
=5	=5	=5	=5	=5	=5	=5	=5	=5	=5
8GG/L	.	.	8G/L	16gg\LL	16.gg\LL	.	0r	.	1ryy
.	.	.	.	32bb-\L	.	.	.	.	.
.	.	.	.	32aa\JJ	32bb-\K	.	.	.	.
8BB-/	6	.	8B-/	8gg\J	16aa\	.	.	.	.
.	.	.	.	.	16gg\JJ	.	.	.	.
8C/	6 5	.	8c/	16gg\LL	16gg\LL	.	.	.	.
.	.	.	.	32cc\L	32cc\L	.	.	.	.
.	.	.	.	32a\	32a\	.	.	.	.
8D/J	#	.	8d/J	32b-\	32b-\	.	.	.	.
.	.	.	.	32g\	32g\	.	.	.	.
.	.	.	.	32a\	32a\	.	.	.	.
.	.	.	.	32f#X\JJJ	32f#X\JJJ	.	.	.	.
!	!	!	!	!	!LO:TX:a:t=P:problem=mixed beam	!	!	!	!
8E-\L	.	.	8e-\L	16gg\LL	16g/LL	.	.	.	.
.	.	.	.	32bb-\L	32bb-\L	.	.	.	.
.	.	.	.	32aa\JJ	32aa\JJ	.	.	.	.
8BB-\	6	.	8B-\	8gg\J	8gg\J	.	.	.	.
!	!	!	!	!LO:LB:g=original	!	!	!	!	!
8C\	6 5	.	8c\	16gg\LL	(16gg\LL	.	.	.	.
.	.	.	.	32cc\L	32cc\L)	.	.	.	.
.	.	.	.	32a\	32a\	.	.	.	.
8D\J	#	.	8d\J	32b-\	32b-\	.	.	.	.
.	.	.	.	32g\	32g\	.	.	.	.
.	.	.	.	32a\	32a\	.	.	.	.
.	.	.	.	32f#X\JJJ	32f#X\JJJ	.	.	.	.
!LO:LB:g=original	!	!	!	!	!	!	!	!	!
=6	=6	=6	=6	=6	=6	=6	=6	=6	=6
16G\LL	.	.	16.g\LL	16g/LL	16g/LL	.	.	.	1ryy
16B-\	.	.	.	16b-/	16b-/	.	.	.	.
.	.	.	32b-\K	.	.	.	.	.	.
!LO:SIC:s=16E-	!	!	!	!	!	!	!	!	!
16D\	.	.	16.e-\	16e-/	16e-/	.	.	.	.
16G\JJ	.	.	.	16g/JJ	16g/JJ	.	.	.	.
.	.	.	32g\JJk	.	.	.	.	.	.
!	!	!	!LO:LB:g=original	!	!	!	!	!	!
8C#X/L	7	.	8c#X\L	8c#X/L	8c#X/L	.	.	.	.
8D/J	#	.	8d\J	8d/J	8d/J	.	.	.	.
4GG/	.	.	4G;/	4G/	4G/	.	.	.	.
4r;	.	.	4r	4r;	4r;	.	.	.	.
=7	=7	=7	=7	=7	=7	=7	=7	=7	=7
!	!	!	!	!LO:TX:a:t=P:problem=mixed beam	!LO:TX:a:t=P:problem=mixed beam	!	!	!	!
8G\L	.	p	8g\L	8gg\L	8gg\L	.	4g\	Fac	1ryy
16.G\L	.	.	16.g\L	16.g/L	16.g/L	.	.	.	.
32G\JJk	.	.	32g\JJk	32g/JJk	32g/JJk	.	.	.	.
16.G\LL	.	.	16.g\LL	16.g/LL	16g/LL	.	16.g\LL	ut	.
.	.	.	.	.	16b-/	.	.	.	.
32B-\K	.	.	32b-\K	32b-/K	.	.	32b-\K	.	.
16.A\	.	.	16.a\	16.a/	16a/	.	16.a\	.	.
.	.	.	.	.	16g/JJ	.	.	.	.
32G\JJk	.	.	32g\JJk	32g/JJk	.	.	32g\JJk	.	.
!	!	!	!	!	!	!	!LO:SIC:v:l:s=por-	!	!
8F#X\L	6	.	8f#X\L	16f#X/LL	16f#X/LL	.	8f#X\	pro-	.
.	.	.	.	16cc#X/J	16cc#X/J	.	.	.	.
8d\J	.	.	8dd\J	8dd/J	8dd/J	.	8dd\	-tem	.
4r;	.	.	4r;	4r;	4r;	.	4r;	.	.
=8	=8	=8	=8	=8	=8	=8	=8	=8	=8
!	!	!	!	!LO:TX:a:t=P:problem=mixed beam	!LO:TX:a:t=P:problem=mixed beam	!	!	!	!
8Fn\L	.	.	8fn\L	8ffn\L	8ffn\L	.	4fn\	Chri-	1ryy
16.F\L	.	.	16.f\L	16.f/L	16.f/L	.	.	.	.
32F\JJk	.	.	32f\JJk	32f/JJk	32f/JJk	.	.	.	.
16.F\LL	.	.	16.f\LL	16.f/LL	16f/LL	.	16.f\LL	-sti	.
.	.	.	.	.	16a-X/	.	.	.	.
32A-X\K	.	.	32a-X\K	32a-X/K	.	.	32a-X\K	.	.
16.G\	.	.	16.g\	16.g/	16g/	.	16.g\	.	.
.	.	.	.	.	16f/JJ	.	.	.	.
32F\JJk	.	.	32f\JJk	32f/JJk	.	.	32f\JJk	.	.
8En\L	6	.	8en\L	16en/LL	16en/LL	.	8en\	mor-	.
.	.	.	.	16bn/J	16bn/J	.	.	.	.
8c\J	.	.	8cc\J	8cc/J	8ccn/J	.	8cc\	-tem	.
4r;	.	.	4r;	4r;	4r;	.	4r;	.	.
=9	=9	=9	=9	=9	=9	=9	=9	=9	=9
!	!	!	!	!LO:TX:a:t=P:problem=mixed beam	!LO:TX:a:t=P:problem=mixed beam	!	!	!	!
8E-X\L	.	.	8e-X\L	8ee-X\L	8ee-X\L	.	4e-X\	Chri-	1ryy
16.E-\L	.	.	16.e-\L	16.e-/L	16e-/L	.	.	.	.
.	.	.	.	.	16e-/JJk	.	.	.	.
32E-\JJk	.	.	32e-\JJk	32e-/JJk	.	.	.	.	.
16.E-\LL	.	.	16.e-\LL	16.e-/LL	16e-/LL	.	16.e-\LL	-sti	.
.	.	.	.	.	16g/	.	.	.	.
32G\K	.	.	32g\K	32g/K	.	.	32g\JJk	.	.
16.F\	.	.	16.f\	16.f/	16f/	.	16.f\LL	.	.
!	!	!	!	!	!LO:TX:a:t=P:problem=urwana kartka, brak 4 i pół taktu	!	!	!	!
.	.	.	.	.	16e-/JJyy	.	.	.	.
32E-\JJk	.	.	32e-\JJk	32e-/JJk	.	.	32e-\JJk	.	.
!	!	!	!	!	!	!	!LO:LB:g=original	!	!
8D\L	6	.	8d\L	16d/LL	2ryy	.	8d\	por-	.
.	.	.	.	16an/J	.	.	.	.	.
8B-\J	.	.	8b-\J	8b-/J	.	.	8b-\	-tem	.
8r	.	.	8r	8r	.	.	8r	.	.
8D\	.	.	8d\	8f/	.	.	8b-\	paſ-	.
=10	=10	=10	=10	=10	=10	=10	=10	=10	=10
8C/L	7	.	8c/L	8e-/L	1ryy	.	8b-\	-si-	1ryy
8C/	.	.	8c/	8e-/	.	.	16a\LL	-o-	.
.	.	.	.	.	.	.	16b-\JJ	-nis	.
8FF/	.	.	8F/	8An/	.	.	8cc\	fac	.
8FF/J	.	.	8F/J	8A/J	.	.	8e-\	con-	.
!	!	!	!	!	!	!	!LO:SIC:v:l:s=-sor-	!	!
8BB-/L	.	.	8B-/L	8B-/L	.	.	8e-\	-for-	.
8BB-/	.	.	8B-/	8f/	.	.	8d\	-tem	.
8BB-/	.	.	8B-/	8f/	.	.	8r	.	.
8BB-/J	.	.	8B-/J	8b-/J	.	.	8b-\	et	.
=11	=11	=11	=11	=11	=11	=11	=11	=11	=11
8FF/L	.	.	8f\L	8a/L	1ryy	.	16a\LL	pla-	1ryy
.	.	.	.	.	.	.	32b-\L	.	.
.	.	.	.	.	.	.	32cc\JJ	.	.
8FF/	.	.	8f\	8a/	.	.	8f\J	.	.
8FF/	.	.	8f\	8a/	.	.	16f\LL	.	.
.	.	.	.	.	.	.	16cc\	.	.
8FF/J	.	.	8f\J	8a/J	.	.	16b-\	.	.
.	.	.	.	.	.	.	16a\JJ	.	.
8FF/L	6 4	.	8f\L	8b-/L	.	.	(16b-\LL	.	.
.	.	.	.	.	.	.	16cc\)	.	.
8FF/	.	.	8f\	8b-/	.	.	16dd\	.	.
.	.	.	.	.	.	.	16f\JJ	.	.
8FF/	.	.	8f\	8b-/	.	.	(16f\LL	.	.
.	.	.	.	.	.	.	16dd\)	.	.
8FF/J	.	.	8f\J	8b-/J	.	.	16cc\	.	.
.	.	.	.	.	.	.	16b-\JJ	.	.
!	!	!	!LO:LB:g=original	!	!	!	!	!	!
=12	=12	=12	=12	=12	=12	=12	=12	=12	=12
8FF/L	.	.	8f\L	8cc\L	1ryy	.	16cc\LL	.	1ryy
.	.	.	.	.	.	.	32dd\L	.	.
.	.	.	.	.	.	.	32ee-\JJ	.	.
8FF/	.	.	8f\	8cc\	.	.	8f\J	.	.
*	*	*	*	*	*	*	*Xtuplet	*	*
8FF/	.	.	8f\	8cc\	.	.	24cc\LL	.	.
.	.	.	.	.	.	.	24b-\	.	.
.	.	.	.	.	.	.	24a\JJ	.	.
8FF/J	.	.	8f\J	8cc\J	.	.	24g\LL	.	.
.	.	.	.	.	.	.	24f\	.	.
.	.	.	.	.	.	.	24e-\JJ	.	.
8BB-/L	.	.	8B-\L	8f/L	.	.	24d\LL	.	.
.	.	.	.	.	.	.	24e-\	.	.
.	.	.	.	.	.	.	24f\JJ	.	.
8C/	6	.	8c\	8e-/	.	.	24e-\LL	.	.
.	.	.	.	.	.	.	24f\	.	.
.	.	.	.	.	.	.	24g\JJ	.	.
8D/	6	.	8d\	8d/	.	.	16f\LL	-gas	.
.	.	.	.	.	.	.	16ee-\	.	.
8E-/J	6 5	.	8e-\J	8c/J	.	.	16dd\	.	.
.	.	.	.	.	.	.	16cc\JJ	.	.
!LO:LB:g=original	!	!	!	!	!	!	!LO:LB:g=original	!	!
=13	=13	=13	=13	=13	=13	=13	=13	=13	=13
8r	.	.	8r	8c/L	1ryy	.	8.g\L	re-	1ryy
!LO:TX:a:t=P:problem=mixed beam	!	!	!LO:TX:a:t=P:problem=mixed beam	!	!	!	!	!	!
8E-\L	6 5	.	8e-\L	8c/	.	.	.	.	.
.	.	.	.	.	.	.	32ee-\LL	.	.
.	.	.	.	.	.	.	32cc\JJJ	.	.
8F\	4	.	8f\	8c/	.	.	8.cc\	-co-	.
8FF/J	5	.	8F/J	8d/J	.	.	.	.	.
.	.	.	.	.	.	.	16b-\	-le-	.
!LO:N:vis=8	!	!	!	!LO:TX:a:t=P:problem=mixed beam	!	!	!	!	!
4BB-/	.	.	4B-/	8.B-/L	.	.	4b-\	-re	.
.	.	.	.	16dd\Jk	.	.	.	.	.
4r	.	.	4r	16.cc\LL	.	.	4r	.	.
.	.	.	.	32b-\JJk	.	.	.	.	.
!	!	!	!	!LO:LB:g=original	!	!	!	!	!
.	.	.	.	16.a/LL	.	.	.	.	.
.	.	.	.	32b-/JJk	.	.	.	.	.
!	!	!	!	!	!LO:PB:g=original	!	!	!	!
=14	=14	=14	=14	=14	=14	=14	=14	=14	=14
!	!	!	!	!LO:TX:a:t=P:problem=mixed beam	!LO:TX:a:t=P:problem=mixed beam	!	!LO:TX:a:t=2	!	!
4En\	6	.	4en\	8.en/L	8.en/L	.	0r	.	1ryy
.	.	.	.	16dd\Jk	16dd\Jk	.	.	.	.
!	!	!	!	!	!LO:N:vis=16.	!	!	!	!
4r	.	.	4r	16.cc\LL	16cc\LL	.	.	.	.
.	.	.	.	.	16b-\	.	.	.	.
.	.	.	.	32b-\K	.	.	.	.	.
.	.	.	.	16.a\	16a\	.	.	.	.
.	.	.	.	.	16b-\JJ	.	.	.	.
.	.	.	.	32b-\JJk	.	.	.	.	.
!	!	!	!	!LO:TX:a:t=P:problem=mixed beam	!LO:TX:a:t=P:problem=mixed beam	!	!	!	!
4E-X\	4 2	.	4e-X\	8.e-X/L	8.e-X/L	.	.	.	.
.	.	.	.	16dd\Jk	16dd\Jk	.	.	.	.
4r	.	.	4r	16.cc\LL	16.cc\LL	.	.	.	.
.	.	.	.	32b-\K	32b-\K	.	.	.	.
.	.	.	.	16.a\	16.a\	.	.	.	.
.	.	.	.	32b-\JJk	32b-\JJk	.	.	.	.
=15	=15	=15	=15	=15	=15	=15	=15	=15	=15
!	!	!	!	!LO:TX:a:t=P:problem=mixed beam	!LO:TX:a:t=P:problem=mixed beam	!	!	!	!
8D\L	6	.	8d\L	8d/L	8d/L	.	.	.	1ryy
8D\	.	.	8d\	32ff\LL	32ff\LL	.	.	.	.
.	.	.	.	(32a/	(32a/	.	.	.	.
.	.	.	.	32b-/	32b-/	.	.	.	.
.	.	.	.	32dd/JJJ)	32dd/JJJ)	.	.	.	.
!	!	!	!	!LO:TX:a:t=P:problem=mixed beam	!LO:TX:a:t=P:problem=mixed beam	!	!	!	!
8E-\	6 5	.	8e-\	8cc\L	8cc\L	.	.	.	.
!LO:SIC:s=4F	!	!	!	!	!	!	!	!	!
8E-\J	.	.	8f\J	32ee-\LL	32ee-\LL	.	.	.	.
.	.	.	.	32g/	(32g/	.	.	.	.
.	.	.	.	32a/	32a/	.	.	.	.
.	.	.	.	32cc/JJJ	32cc/JJJ)	.	.	.	.
8BB-\L	.	.	8B-\L	8b-\L	8b-\L	.	.	.	.
8D\	6	.	8d\	32ff\LL	(32ff\LL	.	.	.	.
.	.	.	.	(32a\	32a\	.	.	.	.
.	.	.	.	32b-\	32b-\	.	.	.	.
.	.	.	.	32dd\JJJ)	32dd\JJJ)	.	.	.	.
8E-\	6 5	.	8e-\	8cc\L	8cc\L	.	.	.	.
8F\J	.	.	8f\J	32ee-\LL	32ee-\LL	.	.	.	.
.	.	.	.	(32g\	(32g\	.	.	.	.
.	.	.	.	32a\	32a\	.	.	.	.
.	.	.	.	32cc\JJJ)	32cc\JJJ)	.	.	.	.
=16	=16	=16	=16	=16	=16	=16	=16	=16	=16
8BB-/L	.	.	8B-/L	16b-/LL	16b-\LL	.	4.b-\	fac	1ryy
.	.	.	.	16b-/	16dd\	.	.	.	.
8BB-/	.	.	8B-/	16b-/	16dd\	.	.	.	.
.	.	.	.	16b-/JJ	16dd\JJ	.	.	.	.
*	*	*	*	*	*tremolo	*	*	*	*
8D/	.	.	8d/	16b-/LL	16dd\LL	.	.	.	.
.	.	.	.	16b-/	16dd\	.	.	.	.
8BB-/J	.	.	8B-/J	16b-/	16dd\	.	8d\	me	.
.	.	.	.	16b-/JJ	16dd\JJ	.	.	.	.
*	*	*	*	*	*Xtremolo	*	*	*	*
8F\L	.	.	8f\L	16b-/LL	16dd\LL	.	8d\	pla-	.
.	.	.	.	16b-/	16dd\	.	.	.	.
8F\	.	.	8f\	16a/	16cc\	.	8c\	-gis	.
.	.	.	.	16a/JJ	16cc\JJ	.	.	.	.
*	*	*	*	*	*tremolo	*	*	*	*
8A\	.	.	8a\	16a/LL	16cc\LL	.	4r	.	.
.	.	.	.	16a/	16cc\	.	.	.	.
8F\J	.	.	8g\J	16a/	16cc\	.	.	.	.
.	.	.	.	16a/JJ	16cc\JJ	.	.	.	.
=17	=17	=17	=17	=17	=17	=17	=17	=17	=17
.	.	.	.	.	.	.	16qqa/LL	.	.
.	.	.	.	.	.	.	16qqb-/JJ	.	.
8F#X\L	6 5	.	8f#X\L	16a/LL	16cc\LL	.	4.cc\	vul-	1ryy
.	.	.	.	16a/	16cc\	.	.	.	.
8En\	.	.	8en\	16a/	16cc\	.	.	.	.
.	.	.	.	16a/JJ	16cc\JJ	.	.	.	.
8F#\	.	.	8f#\	16a/LL	16cc\LL	.	.	.	.
.	.	.	.	16a/	16cc\	.	.	.	.
8D\J	.	.	8d\J	16a/	16cc\	.	16b-\LL	-ne-	.
.	.	.	.	16a/JJ	16cc\JJ	.	16a\JJ	.	.
*	*	*	*	*	*Xtremolo	*	*	*	*
!LO:TX:a:t=P:problem=mixed beam	!	!	!LO:TX:a:t=P:problem=mixed beam	!	!	!	!	!	!
8G\L	.	.	8g\L	16a/LL	16cc\LL	.	8a\	-ra-	.
.	.	.	.	16a/	16cc\	.	.	.	.
8GG/	.	.	8G/	16g/	16b-\	.	8g\	-ri	.
.	.	.	.	16g/JJ	16b-\JJ	.	.	.	.
*	*	*	*	*	*tremolo	*	*	*	*
8BB-/	.	.	8B-/	16g/LL	16b-\LL	.	4r	.	.
.	.	.	.	16g/	16b-\	.	.	.	.
8GG/J	.	.	8G/J	16g/	16b-\	.	.	.	.
.	.	.	.	16g/JJ	16b-\JJ	.	.	.	.
=18	=18	=18	=18	=18	=18	=18	=18	=18	=18
.	.	.	.	.	.	.	8qqg/	.	.
8C#X/L	#	.	8c#X\L	(16g/LL	16b-\LL	.	4.b-\	vul-	1ryy
.	.	.	.	16g/	16b-\	.	.	.	.
8C#/	.	.	8c#\	16g/	16b-\	.	.	.	.
.	.	.	.	16g/JJ)	16b-\JJ	.	.	.	.
8C#/	.	.	8c#\	16g/LL	16b-\LL	.	.	.	.
.	.	.	.	16g/	16b-\	.	.	.	.
8C#/J	.	.	8c#\J	16g/	16b-\	.	16a\LL	-ne-	.
.	.	.	.	16g/JJ	16b-\JJ	.	16g\JJ	.	.
*	*	*	*	*	*Xtremolo	*	*	*	*
8D\L	6 4	.	8d\L	16g/LL	16b-\LL	.	8g\	-ra-	.
.	.	.	.	16g/	16b-\	.	.	.	.
8D\	.	.	8d\	16f#X/	16a\	.	8f#X\	-ri	.
.	.	.	.	16f#/JJ	16a\JJ	.	.	.	.
8D\	.	.	8d\	16f#/LL	16a/LL	.	8r	.	.
.	.	.	.	16f#/	16a/	.	.	.	.
8D\J	.	.	8d\J	16f#/	16d/	.	16d\	cru-	.
.	.	.	.	16f#/JJ	16d/JJ	.	16d\	-ce	.
!	!	!	!	!LO:LB:g=original	!	!	!	!	!
=19	=19	=19	=19	=19	=19	=19	=19	=19	=19
8C/L	-	.	8c/L	16g/LL	16e-X/LL	.	8e-\	hac	1ryy
.	.	.	.	16g/	16e-/	.	.	.	.
8BB-/	.	.	8B-/	16g/	16e-/	.	8g\	in-	.
.	.	.	.	16g/JJ	16g/JJ	.	.	.	.
8AA/	6 3	.	8A/	16c/LL	16f/LL	.	8.f\	-e-	.
.	.	.	.	16c/	16f/	.	.	.	.
8AA/J	.	.	8A/J	16c/	16f/	.	.	.	.
.	.	.	.	16c/JJ	16e-/JJ	.	16e-\	-bri-	.
8BB-/L	4 2	.	8B-/L	16f/LL	16e-/LL	.	8e-\	-a-	.
.	.	.	.	16f/	16e-/	.	.	.	.
8BB-/	.	.	8B-/	16f/	16d/	.	8d\	-ri	.
.	.	.	.	16f/JJ	16d/JJ	.	.	.	.
!	!	!	!	!	!	!	!LO:LB:g=original	!	!
8BB-/	3	.	8B-/	16f/LL	16d/LL	.	8r	.	.
.	.	.	.	16f/	16d/	.	.	.	.
8BB-/J	.	.	8B-/J	16f/	16b-/	.	8b-\	in-	.
.	.	.	.	16f/JJ	16b-/JJ	.	.	.	.
!	!	!	!LO:LB:g=original	!	!	!	!	!	!
=20	=20	=20	=20	=20	=20	=20	=20	=20	=20
8C/L	7	.	8c\L	16e-/LL	16b-\LL	.	8.b-\L	-e-	1ryy
.	.	.	.	16e-/	16b-\	.	.	.	.
8C/	.	.	8c\	16e-/	16b-\	.	.	.	.
.	.	.	.	16e-/JJ	16b-\JJ	.	32a\LL	.	.
.	.	.	.	.	.	.	32b-\JJJ	.	.
!	!	!	!	!	!LO:LB:g=original	!	!	!	!
8C/	.	.	8c\	16e-/LL	16a/LL	.	8cc\	.	.
.	.	.	.	16e-/	16a/	.	.	.	.
8C#X/J	7	.	8c#X\J	16b-/	16g/	.	8g\	-bri-	.
.	.	.	.	16b-/JJ	16g/JJ	.	.	.	.
4D/	#	.	4d\	16f#X/LL	16f#X/LL	.	(16f#X\LL	-a-	.
.	.	.	.	16d/	16d/	.	16en\JJ)	.	.
.	.	.	.	16f#/	16f#/	.	8d\	-ri	.
.	.	.	.	16a/JJ	16a/JJ	.	.	.	.
16D/LL	.	.	16d\LL	4dd\	4dd\	.	4r	.	.
16Cn/	.	.	16cn\	.	.	.	.	.	.
16BB-/	.	.	16B-\	.	.	.	.	.	.
16AA/JJ	.	.	16A\JJ	.	.	.	.	.	.
!LO:LB:g=original	!	!	!	!	!	!	!	!	!
=21	=21	=21	=21	=21	=21	=21	=21	=21	=21
!	!	!	!	!LO:TX:a:t=P:problem=mixed beam	!LO:TX:a:t=P:problem=mixed beam	!	!	!	!
8GG/L	.	.	8G/L	16g/LL	16g/LL	.	4g\	ob	1ryy
.	.	.	.	32bb-\L	32bb-\L	.	.	.	.
.	.	.	.	32aa\JJ	32aa\JJ	.	.	.	.
8BB-/	6	.	8B-/	8gg\J	[8gg\J	.	.	.	.
8C/	6 5	.	8c/	16gg\LL	16gg\LL]	.	16g\LL	a-	.
.	.	.	.	32cc\L	(32cc\L	.	16cc\JJ	.	.
.	.	.	.	32a\	32a\	.	.	.	.
8D/J	#	.	8d/J	32b-\	32b-\	.	16b-\LL	-mo-	.
.	.	.	.	32g\	32g\	.	.	.	.
.	.	.	.	32a\	32a\)	.	16a\JJ	.	.
.	.	.	.	32f#X\JJJ	32f#X\JJJ	.	.	.	.
!LO:TX:a:t=P:problem=mixed beam	!	!	!	!LO:TX:a:t=P:problem=mixed beam	!	!	!	!	!
8E-\L	.	.	8e-\L	16g/LL	16g/LL	.	4g\	.	.
.	.	.	.	32bb-\L	32bb-\L	.	.	.	.
.	.	.	.	32aa\JJ	32aa\JJ	.	.	.	.
8BB-/	6	.	8B-\	8gg\J	[8gg\J	.	.	.	.
8C/	6 5	.	8c\	16gg\LL	16gg\LL]	.	16g\LL	.	.
.	.	.	.	32cc\L	32cc\L	.	32cc\L	.	.
.	.	.	.	(32a\	(32a\	.	32a\	.	.
8D/J	#	.	8d\J	32b-\	32b-\	.	32b-\	.	.
.	.	.	.	32g\	32g\	.	32g\	.	.
.	.	.	.	32a\)	32a\)	.	32a\	.	.
.	.	.	.	32f#X\JJJ	32f#X\JJJ	.	32f#X\JJJ	.	.
=22	=22	=22	=22	=22	=22	=22	=22	=22	=22
!	!	!	!	!LO:TX:a:t=P:problem=mixed beam	!	!	!	!	!
8E-\L	.	.	8e-\L	16g/LL	16g\LL	.	4g\	.	1ryy
.	.	.	.	32bb-\L	32bb-\L	.	.	.	.
.	.	.	.	32aa\JJ	32aa\JJ	.	.	.	.
8BB-\	6	.	8B-\	8gg\J	[8gg\J	.	.	.	.
8C\	6 5	.	8c\	16gg\LL	16gg\LL]	.	16g\LL	.	.
.	.	.	.	32cc\L	(32cc\L	.	32cc\L	.	.
.	.	.	.	32a\	32a\	.	32a\	.	.
8D\J	#	.	8d\J	32b-\	32b-\	.	32b-\	.	.
.	.	.	.	32g\	32g\	.	32g\	.	.
.	.	.	.	32a\	32a\)	.	32a\	-rem	.
.	.	.	.	32f#X\JJJ	32f#X\JJJ	.	32f#X\JJJ	.	.
4E-\	.	.	4e-\	16g/LL	16g/LL	.	16g\	fi-	.
.	.	.	.	16f#X/J	16f#X/J	.	16f#\	-li-	.
.	.	.	.	8g/J	8g/J	.	8g\	-i	.
4FF#X/	6 5	.	4F#X/	8r	8r	.	8r	.	.
.	.	.	.	8a/	8cc\	.	16a\	ob	.
.	.	.	.	.	.	.	16d\	a-	.
!	!	!	!	!	!	!	!LO:LB:g=original	!	!
=23	=23	=23	=23	=23	=23	=23	=23	=23	=23
8GG/L	.	.	8G/L	8d/L	8b-/L	.	24b-\LL	-mo-	1ryy
.	.	.	.	.	.	.	24a\	.	.
.	.	.	.	.	.	.	24b-\JJ	.	.
8C/	.	.	8c/	8g/	8a/	.	24cc\LL	-rem	.
.	.	.	.	.	.	.	24b-\	.	.
.	.	.	.	.	.	.	24a\JJ	.	.
8D/	4	.	8d/	8g/	8a/	.	8.a\	fi-	.
8D/J	#	.	8d/J	8f#X/J	8a/J	.	.	.	.
.	.	.	.	.	.	.	16a\	-li-	.
16.G\LL	.	.	16.g\LL	16.g/LL	16.g/LL	.	4g\	-i	.
32B-\K	.	.	32b-\K	32b-/K	32b-/K	.	.	.	.
16.E-\	.	.	16.e-\	16.e-/	16.e-/	.	.	.	.
32G\JJk	.	.	32g\JJk	32g/JJk	32g/JJk	.	.	.	.
8C#X/L	7	.	8c#X\L	8c#X/L	8c#X/L	.	8c#X\	ob	.
8C#/J	.	.	8c#\J	8c#/J	8c#/J	.	8c#\	a-	.
=24	=24	=24	=24	=24	=24	=24	=24	=24	=24
1D	#4r	.	1d	1d	1d	.	8d\	-mo-	1ryy
.	.	.	.	.	.	.	4cc\	-rem	.
.	.	.	.	.	.	.	24b-\LL	fi-	.
.	.	.	.	.	.	.	24a\	.	.
.	.	.	.	.	.	.	24g\JJ	.	.
*	*	*	*	*	*	*	*2\right	*	*
.	.	.	.	.	.	.	2a\	-li-	.
=25	=25	=25	=25	=25	=25	=25	=25	=25	=25
!	!	!	!	!LO:TX:a:t=P:problem=mixed beam	!LO:TX:a:t=P:problem=mixed beam	!	!	!	!
8GG/L	.	.	8G/L	16g/LL	16g/LL	.	2g\	-i	1ryy
.	.	.	.	32bb-\L	32bb-\L	.	.	.	.
.	.	.	.	32aa\JJ	32aa\JJ	.	.	.	.
8BB-/	6	.	8B-/	8gg\J	[8gg\J	.	.	.	.
8C/	6 5	.	8c/	16gg\LL	16gg\LL]	.	.	.	.
.	.	.	.	32cc\L	32cc\L	.	.	.	.
.	.	.	.	32a\	(32a\	.	.	.	.
8D/J	#	.	8d/J	32b-\	32b-\	.	.	.	.
.	.	.	.	32g\	32g\	.	.	.	.
.	.	.	.	32a\	32a\)	.	.	.	.
.	.	.	.	32f#X\JJJ	32f#X\JJJ	.	.	.	.
!	!	!	!	!LO:LB:g=original	!	!	!	!	!
!	!	!	!	!LO:TX:a:t=P:problem=mixed beam	!LO:TX:a:t=P:problem=mixed beam	!	!	!	!
8E-/L	.	.	8e-/L	16g/LL	16g/LL	.	2r	.	.
.	.	.	.	32bb-\L	32bb-\L	.	.	.	.
.	.	.	.	32aa\JJ	32aa\JJ	.	.	.	.
8BB-/	6	.	8B-/	8gg\J	8gg\J	.	.	.	.
8C/	6 5	.	8c/	16gg\LL	16gg\LL	.	.	.	.
.	.	.	.	32cc\L	32cc\L	.	.	.	.
.	.	.	.	32a\	(32a\	.	.	.	.
8D/J	#	.	8d/J	32b-\	32b-\	.	.	.	.
.	.	.	.	32g\	32g\	.	.	.	.
.	.	.	.	32a\	32a\)	.	.	.	.
.	.	.	.	32f#X\JJJ	32f#X\JJJ	.	.	.	.
!	!	!	!	!	!LO:LB:g=original	!	!	!	!
=26	=26	=26	=26	=26	=26	=26	=26	=26	=26
!	!	!	!	!	!	!	!LO:TX:b:i:t=Fac me Crucem Vertat Solo	!	!
16.G\LL	.	.	16.g\LL	16.g/LL	16.g/LL	.	1r	.	1ryy
32B-\K	.	.	32b-\K	32b-/K	32b-/K	.	.	.	.
16.E-\	.	.	16.e-\	16.e-/	16.e-/	.	.	.	.
32G\JJk	.	.	32g\JJk	32g/JJk	32g/JJk	.	.	.	.
8C#X\L	7	.	8c#X\L	8c#X/L	8c#X/L	.	.	.	.
8D\J	#	.	8d\J	8d/J	8d/J	.	.	.	.
4GG/	.	.	4G/	4G/	4G/	.	.	.	.
4r;	.	.	4r	4r	4r	.	.	.	.
==	==	==	==	==	==	==	==	==	==
*-	*-	*-	*-	*-	*-	*-	*-	*-	*-
!!!system-decoration: [g1][g2]s6
!!!ENC: Marta Lawrence
!!!END: 2020-11-29
!!!ENC: Andrzej Borzym
!!!END: 2020-06-09
